X: 261
T: Mrs Hardie's Strathspey
C: by J Pringle
B: John Pringle "Collection of Reels Strathspeys & Jigs", 1801 p.26#1
Z: 2011 John Chambers <jc:trillian.mit.edu>
R: strathspey
M: C
L: 1/8
K: Bb
V: 1
d/c/ |\
B>FD>B, B>FD>B, | C<c~c>B A<G~G>A | B>FD>B, D<FE>G | FBAF B2B :|
d/e/ |\
f>Bdf g>ceg | (e/d/c/B/) Ac F2~Fd/e/ | f>Bdf g>ceg | (e/d/c/B/) AF B2~Bd/e/ |
f>Bdf g>ceg | (e/d/c/B/) Ac F2~FG/A/ | B>FD<B E<BD<B | G>eF>A B2B |]
V: 2 clef=bass middle=d
z | B2B2 B2B2 | f2F2 E2e2 | B2B2 B2e2 | f2F2 B2B :|
z | [d2B2][d2B2] [e2B2][e2B2] | B2=e2 f2F2 | [d2B2][d2B2] [e2B2][e2B2] | f2F2 B2B2 |
    B2B2 e2E2 | B2=e2 f2F2 | [d2B2][d2B2] [e2B2][d2B2] | e2f2 B2B |]

%%sep 2 1 500

